X: 9664
T:Dublin Reel III
M:C|
K:G
G~B3 G2GD|G~B3 dBAB|G~B3 G2ge|fdec dBAB|\
G~B3 G2GD|G~B3 dBAB|G~B3 G2ge|fed^c defg||\
a~d3 adbd|a~d3 dBA2|a~d3 adbd|egfe dBA2|\
a~d3 adbd|a~d3 dBA2|g2gf gbag|fge^c d2ef||\
g2gf gdBd|gfgd BGBd|g2gf gbag|fge^c d2ef|\
g2gf gdBd|gfgd BGBd|g2gf gbag|fge^c d2ef||\
g~B3 gBaB|g~B3 dBAB|g~B3 gbag|fge^c d2ef|\
g~B3 gBaB|g~B3 dBAB|g~B3 gbag|fge^c d=cBA||
